svg/300/outlined/double_arrow-fill.svg

<svg xmlns="http://www.w3.org/2000/svg" width="48" height="48" viewBox="0 -960 960 960"><path d="M262.771-210.001 463.155-480 262.771-749.999h55.922L519.076-480 318.693-210.001h-55.922Zm245.076 0L708.231-480 507.847-749.999h55.922L764.153-480 563.769-210.001h-55.922Z"/></svg>

<svg xmlns="http://www.w3.org/2000/svg" width="48" height="48" viewBox="0 -960 960 960"><path d="m262.77-210 200.38-270-200.38-270h55.92l200.39 270-200.39 270h-55.92Zm245.08 0 200.38-270-200.38-270h55.92l200.38 270-200.38 270h-55.92Z"/></svg>
